public/formular-icons/greece/upper-upsilon.svg

<svg style="vertical-align:0" xmlns="http://www.w3.org/2000/svg" width="1.76ex" height="1.595ex" viewBox="0 -705 778 705" xmlns:xlink="http://www.w3.org/1999/xlink"><defs><path id="a" d="M55 551q0 53 36 103t103 51q46 0 83-24t57-57 33-68 18-58l4-24 3 14q2 13 8 33t14 45 24 49 35 44 48 33 63 13q36 0 64-16t43-42 23-50 8-46q0-11-3-13t-20-2q-19 0-22 5v3q0 2-1 4 0 28-26 48t-62 20h-6q-44 0-77-34-39-39-51-105t-13-159v-49q0-32 1-47V61q6-6 10-8t26-5 64-2h27V0h-12q-24 3-168 3T221 0h-12v46h61q14 0 25 1t16 1 11 3 6 3 4 3 5 4v148q0 174-4 206-20 201-144 201-35 0-61-19t-27-49q0-8-4-10t-19-2q-15 0-19 2t-4 13Z"/></defs><g stroke="currentColor" fill="currentColor" stroke-width="0"><use data-c="3A5" xlink:href="#a" transform="scale(1 -1)"/></g></svg>

<svg style="vertical-align: 0" xmlns="http://www.w3.org/2000/svg" width="1.76ex" height="1.595ex" role="img" focusable="false" viewBox="0 -705 778 705" xmlns:xlink="http://www.w3.org/1999/xlink"><defs><path id="MJX-126-TEX-N-3A5" d="M55 551Q55 604 91 654T194 705Q240 705 277 681T334 624T367 556T385 498L389 474L392 488Q394 501 400 521T414 566T438 615T473 659T521 692T584 705Q620 705 648 689T691 647T714 597T722 551Q722 540 719 538T699 536Q680 536 677 541Q677 542 677 544T676 548Q676 576 650 596T588 616H582Q538 616 505 582Q466 543 454 477T441 318Q441 301 441 269T442 222V61Q448 55 452 53T478 48T542 46H569V0H557Q533 3 389 3T221 0H209V46H236Q256 46 270 46T295 47T311 48T322 51T328 54T332 57T337 61V209Q337 383 333 415Q313 616 189 616Q154 616 128 597T101 548Q101 540 97 538T78 536Q63 536 59 538T55 551Z"></path></defs><g stroke="currentColor" fill="currentColor" stroke-width="0" transform="scale(1,-1)"><g data-mml-node="math"><g data-mml-node="mi"><use data-c="3A5" xlink:href="#MJX-126-TEX-N-3A5"></use></g></g></g></svg>
